X: 13000
T: Fifty Five
R: reel
M: 4/4
K: Edorian
BEED E2EF|GBAG AFGA|BEED E2EF|GEFD E2FA|
BEED E2EF|GBAG AFGB|ADDC D2DE|FAGF AFGA|
BEED E2EF|GBAG AFGA|BdBA GFGA|BGFD E2FA|
BEED E2EF|GBAG BAGB|ADDC D2DE|FGAB AGFA|
BEED E2EF|GBAG AFGA|BdBA GFGB|AGFD E2GA|
Beed e2ef|geae gfeg|fddc d2de|fagf gfed|
Beed e2ef|geaf gefg|afge fded|Beed e2GA|
Beed e2ef|(3gee (3aee (3gee (3efg|fddc d2de|(3fed (3afd (3gfe (3fed|
Beed e2ef|(3gfe (3agf (3gfe (3efg|abag fBdf|gefd e4|

